X: 1
T: Charlie Fleming's Reel
R: reel
S: Donough O'Donovan <odono@IINET.NET.AU> irtrad-l 2001-8-19
M: C|
L: 1/8
K: D
d2 cd AFDd | cdAF DFAF | E3 F GFED | C2 AE BEcE |
d2 cd AFDd | cdAF DFAF |1 Gfgf efed | ecAc d3 c :||2 Gfgf edcB | Acec d3 a ||
^gafd Aa^ga | fdAa ^gafd | eB ~B2 bagf | edcB Aa^ga |
^gafd Aa^ga | fdAa ^gafd | eB ~B2 cBAG | FDECD3 a |
^gafd Aa^ga | fdAa ^gafd | eB ~B2 bagf | edcB AGFE |
 D2 cd AFDd | cdAF DFAF | Gfgf efed | cAGE D3 c ||
